X: 2199
T: LADY SPENCER CHICHESTER
R: Strathspey
B: Kerr's v.2 p.22 #199
Z: 2016 John Chambers <jc:trillian.mit.edu>
M: C
L: 1/8
K: F
C |\
F>GF>C (D<F)F2 | F>GA>C (D<G)G2 |\
F>GA>c d>fc>f | c>AB>G A<FF ::\
c |\
f>gf>c (d<f)f2 |
(f/e/)f/g/ f>c (d<g)g2 |\
[1 f>gf>c d<f c<f | c>AB>G A<FF :|\
[2 f>ad>f c>dA>f | c>AG>c A<FF |]
